X:1
T:Pegleg
S:Lotus DIckey (Ind.)
M:C|
L:1/8
F: https://www.slippery-hill.com/recording/pegleg
Z:Transcribed by Andrew Kuntz
K:C
AB|c2cAc2cA|BdBA G2AB|c2 cA c2 cA|BdBA G2 AB|
cBcd cBAG |F3F F2EF|G2EF AGAB|cBcd c2:|
|:ef|gfga gfed|c3A c2ef|gfga gfec|dcBA GABd|
gfga gfed|c3c c2ec|BBdB AGAB|c3A c2:|]

